icons/tornado-fill.svg

<svg xmlns="http://www.w3.org/2000/svg" viewBox="0 0 24 24">
    <g>
        <path fill="none" d="M0 0h24v24H0z"/>
        <path d="M2 3h20v2H2V3zm2 4h16v2H4V7zm4 4h14v2H8v-2zm2 4h8v2h-8v-2zm-2 4h6v2H8v-2z"/>
    </g>
</svg>

<svg viewBox="0 0 24 24" fill="currentColor" xmlns="http://www.w3.org/2000/svg">
    <path d="M2 3H22V5H2V3ZM4 7H20V9H4V7ZM8 11H22V13H8V11ZM10 15H18V17H10V15ZM8 19H14V21H8V19Z"/>
</svg>
